X:1
T:Mon cueur sera tousiours
T:Pierre Certon
T:Source : Livre premier contenant 29 chansons nouvelles à 4 parties---Paris---P.Attaignant---1535. Editor : André Vierendeels (11/12/17). Notes : Original clefs : C1, C3, C4, F4 Original note values have been halved Editorial accidentals above the staff
T:#
T:Mon cueur sera tousiours
T:©
T:©
T:©
T:©
C:Pierre Certon
Z:©
%%score [ 1 [ 2 3 ] 4 ]
L:1/8
Q:1/4=103
M:2/2
K:C
V:1 treble nm="Alto" snm="A"
V:2 treble-8 nm="Tenor 1" snm="T 1"
V:3 treble-8 nm="Tenor 2" snm="T 2"
V:4 bass nm="Bass" snm="B"
V:1
 z4 A4 | A2 A2 D4- | D2 G2 F3 E/D/ | CDEF E2 D2- | D2 C2 D4 | z2 A2 A2 A2 | D6 G2 | F3 E/D/ CDEF | %8
w: Mon|cueur se- ra|_ tous- iours _ _|soubz _ _ _ ta puis-|* san- ce,|com- bien que|soit loing-|tain _ _ de _ _ _|
"^#" E2 D4 C2 | D4 z2 A2 | A2 A2 E3 F | GA B2 A2 c2 | BAGF E3 F | GE A4 G2 | A4 z2 G2 | %15
w: ta pre- sen-|ce, pre-|sent se- ra _|_ _ _ par bon|ne'a- * * * * *|* * fe- cti-|on, qui|
 A2 A2 E2 G2- | GFED E2 F2- | FE E4 D2 | E8 | z2 A2 A2 A2 | D6 G2 | F3 E/D/ CDEF |"^#" E2 D4 C2 | %23
w: de noz cueurs a|_ _ _ _ _ faict|_ _ vray u-|nion,|con- si- de-|rant no-|tr'an- * * ti- * * *|qu'al- li- an-|
 D4 z2 A2 | A2 A2 D4- | D2 G2 F3 E/D/ | CDEF E2 D2- |"^#" D2 C2 !fermata!D4 |] %28
w: ce, con|si- de- rant|_ no tr'an- * *|ti- * * * qu'al- li-|* an- ce.|
V:2
 A4 c2 c2 | d4 A4 | B2 B2 d3 c | AB c4 B2 | A4 F2 A2 | c2 c2 d4 | A4 B2 B2 | d3 c AB c2- | %8
w: Mon cueur se-|ra tous-|iours soubz ta puis-|san- * * *|* ce, com-|bien que soit|loing- tain de|ta pre- sen- * *|
 c2 B2 A4 | F2 f2 f2 f2 | e2 c4 BA | e6 f2 | g4 c2 e2- | e2 d2 e4 | c2 e2 d2 B2 | c6 BA | %16
w: |ce, pre- sent se-|ra par _ _|_ bon-|* ne'a- fe-|* * cti-|on, qui de noz|cueurs _ _|
 G2 c3 BAG | F2 G2 A4 | B4 A2 A2 | c2 c2 d4 | A4 B2 B2 | d3 c AB c2- | c2 B2 A4 | A2 A2 c2 c2 | %24
w: _ a _ _ _|faict vray u-|ni- on, con|si de- rant|no- * tr'an-|ti- * * * qu'al-|* li- an-|ce, con- si- de-|
 d4 A4 | B2 B2 d3 c | AB c4 B2 | A4 !fermata!A4 |] %28
w: rant no-|tr'an- ti- * *|qu'a- * * li-|an- ce.|
V:3
 A4 A2 A2 | D2 D2 F4 | G4 A4- | A2 G3 FED | E4 D2 A2 | A2 A2 D2 D2 | F4 G4 | A6 G2- | GFED E4 | %9
w: Mon cueur se-|ra tous- iours|soubz ta|_ puis- * * *|san- ce, com-|bien que soit loing-|tain de|ta pre-|* * * * sen-|
 D2 d2 d2 d2 | A2 A2 c4 | B2 G2 c4 | d2 e3 d c2 | B2 A2 B4 | A2 E2 F2 G2 | E2 A2 A2 G2 | %16
w: ce, pre- sent se-|ra par bon-|* ne'a- fe-||* * cti-|on, qui de nos|ceurs a faict _|
 c3 B AGFG | AB c3 B A2- |"^#" A2 G2 A2 A2 | A2 A2 D2 D2 | F4 G4 | A6 G2- | GFED E4 | D2 A2 A2 A2 | %24
w: _ _ _ _ _ _|* * vray _ u-|* ni- on, con|si- de- rant no-|tr'an- ti-|qu'al- li-|* * * * an-|ce, con si- de-|
 D2 D2 F4 | G4 A4- | A2 G3 FED | E4 !fermata!D4 |] %28
w: rant no- tr'an-|ti- qu'al-|* li- * * *|an- ce.|
V:4
 z8 | D,4 D,2 D,2 | G,,2 G,,2 D,C,D,E, | F,2 E,2 C,2 D,2 | A,,4 D,4 | z4 z2 D,2 | %6
w: |Mon cueur se-|ra tous- iours _ _ _|_ soubz ta puis-|san- ce,|com-|
 D,2 D,2 G,,2 G,,2 | D,C,D,E, F,2 E,2 | C,2 D,2 A,,4 | D,8 | z2 A,2 A,2 A,2 | E,2 E,2 A,4 | %12
w: bien que soit loing-|tain _ _ _ _ de|ta pre- sen-|ce,|pre- sent se-|ra par bon-|
 G,2 E,2 A,4 | G,2 F,2 E,4 | A,,2 C,2 D,2 E,2 | A,,2 A,,2 C,4 | C,6 D,2- | D,2 C,2 F,4 | %18
w: ne'a- fe- *|* * cti-|on, qui de nos|cueurs a faict|vray u-|* * ni-|
 E,4 A,,4- | A,,4 z2 D,2 | D,2 D,2 G,,2 G,,2 | D,C,D,E, F,2 E,2 | C,2 D,2 A,,4 | D,4 z4 | %24
w: * on,|_ con-|si- de- rant no-|tr'an- * * * * ti-|qu'al- li- an-|ce,|
 z2 D,2 D,2 D,2 | G,,2 G,,2 D,C,D,E, | F,2 E,2 C,2 D,2 | A,,4 !fermata!D,4 |] %28
w: con- si- de-|rant no- tr'an- * * *|* ti- qu'al- li-|an- ce.|

